svg/u1f355.svg

<svg viewBox="0 0 128 128" xmlns="http://www.w3.org/2000/svg">
  <path d="M20.24,47.26c0,0-5.48,3.45-6.11,6.89c-0.63,3.45,0.63,7.52,2.35,10.18s3.76,4.86,6.27,5.8 s4.7,0.78,4.7,0.78s5.8,6.58,16.13,15.51S67.08,106,81.96,114.3s20.21,10.34,24.28,10.34s3.92-6.11,3.45-7.99 S83.06,85.64,83.06,85.64L20.24,47.26z" fill="#FF8E00"/>
  <path d="M31.21,62.46l-3.92-4.23c0,0-4.07-7.68-7.83-7.68s-5.33,3.6-5.33,3.6s-0.47-3.92,4.23-11.43 s10.65-13.47,15.98-17.23s11.9-8.15,16.29-10.65S64.57,9.2,70.06,7.32c5.48-1.88,17.39-4.23,22.87-3.13 c5.48,1.1,7.83,4.86,7.83,8.77s-0.94,6.58-1.72,7.36s-5.95,5.17-5.95,5.17L31.21,62.46z" fill="#F5B03E"/>
  <path d="M42.2,45.95l-9.71,6.27l-4.07,7.99c0,0,0.78,2.66,2.04,4.07c1.25,1.41,11.74,11.46,19.25,17.88 c5.86,5.01,18.35,15.64,18.35,15.64s0.51,5.34,1.1,9.09c0.47,2.98,0.5,7.95,3.64,7.81c3.96-0.18,1.68-8.2,4.82-8.12 c6.27,0.16,0.05,17.12,6.79,17.03c5.37-0.07,1.96-9.34,4.65-10.92c1.46-0.86,4.36,2.79,9.09,4.86c5.84,2.55,9.4,4.48,11.28,3.6 c3.97-1.86-4.4-45.23-5.34-52.59c-0.94-7.36-5.62-45.16-5.94-46.41s-6.74-1.41-6.74-1.41l-9.87,3.45l-14.1,1.88l-16.6,9.87 L42.2,45.95z" fill="#FFCC8A"/>
  <path d="M39.75,44.38c-3.08,1.74-7.05,2.71-10.4,8.23c-2.79,4.6-3.53,9.31-1.54,9.67 c1.99,0.36,3.5-6.58,6.15-9.22c4.25-4.25,7.69-4.7,10.13-6.96s5.11-8.4,15.28-13.83c11.85-6.33,18.93-4.66,21.7-5.7 c3.62-1.36,4.6-3.58,9.13-4.52c4.79-0.99,8.12,0.92,8.12,0.92s1.09-2.53-0.36-3.71c-1.45-1.18-4.12-2.1-8.58-1.19 c-4.88,0.99-8.5,4.25-9.49,4.34s-11.12-0.45-23.15,6.42S42.46,42.84,39.75,44.38z" fill="#CB6C22"/>
  <path d="M53.58,55.32L37.4,58.85c0,0-0.25,3.07-0.09,3.98c0.54,3.07,4.61,7.96,7.05,8.77s7.41,0.9,9.04,0.18 c1.63-0.72,6.51-4.25,7.14-6.15c0.63-1.9,0.46-9.85-0.8-11.12C58.48,53.25,53.58,55.32,53.58,55.32z" fill="#DB0D27"/>
  <path d="M42.19,50.26c-1.73,1.34-5.06,5.88-4.79,9.13c0.27,3.26,5.88,8.95,7.41,9.49s6.51,0.63,7.78,0.27 s6.15-3.98,6.87-5.24c0.72-1.27,1.36-8.32,0.18-9.58s-4.7-4.97-7.5-5.79C49.33,47.73,43.82,48.99,42.19,50.26z" fill="#ED6D30"/>
  <path d="M83.6,65.45c0,0-14.32-1.03-14.5-0.13s-0.51,4.38,0.4,7.18c0.64,1.99,2.17,5.43,6.87,7.41 s9.22-0.18,10.4-1.09c2.21-1.7,3.62-3.8,3.98-5.06C91.11,72.5,83.6,65.45,83.6,65.45z" fill="#DB0D27"/>
  <path d="M76.64,57.94c-2.21,0.8-7.5,4.07-7.6,7.69c-0.09,3.62,2.53,8.05,3.89,9.04s5.88,3.62,9.22,3.44 c3.35-0.18,7.96-2.89,8.59-4.34c0.63-1.45,0.9-5.7,0.63-7.87c-0.27-2.17-4.97-7.05-7.32-7.78C81.7,57.4,78.63,57.22,76.64,57.94z" fill="#ED6D30"/>
  <path d="M76.1,91.76c0,0-13.11-3.62-13.29-3.35c-0.18,0.27-1.99,2.53-1.54,3.62 c0.45,1.09,5.06,4.79,6.96,6.42c1.9,1.63,7.64,5,8.32,4.88c1.63-0.27,2.89-2.89,2.89-2.89L76.1,91.76z" fill="#DB0D27"/>
  <path d="M77.27,86.24c-3.2-2.35-7.87-2.17-10.4-0.99c-2.53,1.18-4.07,2.71-4.34,3.89 c-0.27,1.18,1.82,3.45,2.64,4.08c0.81,0.63,3.27,2.49,3.27,2.49s3.65,2.86,5,3.9c1.88,1.45,4.24,2.27,4.87,2.36 c0.63,0.09,3.57-3.71,3.03-8.78C81.06,90.6,79.96,88.22,77.27,86.24z" fill="#ED6D30"/>
  <path d="M100.06,79.01l-4.88-0.18c0,0-1.99,3.71-0.63,7.87c1.11,3.4,3.44,5.43,7.32,6.51 c3.89,1.09,6.06,0.7,6.06,0.7l0.06-2.73L100.06,79.01z" fill="#DB0D27"/>
  <path d="M104.76,72.77c0,0-6.02-0.71-9.13,4.88c-2.38,4.29-0.72,7.87,1.18,9.95c1.9,2.08,4.79,3.44,6.96,3.62 s4.27,0.01,4.27,0.01s-0.84-5.55-1.66-10.19C105.88,78.26,104.76,72.77,104.76,72.77z" fill="#ED6D30"/>
  <path d="M87.22,33.62c0,0-11.66,0.36-12.39,1.54s-0.72,6.42-0.36,8.5c0.36,2.08,3.53,7.14,9.86,7.23 c6.33,0.09,8.56-1.49,11.02-6.27c2.46-4.78-0.1-10.13-0.1-10.13L87.22,33.62z" fill="#DB0D27"/>
  <path d="M87.31,28.28c-2.53-0.49-6.06,0.54-7.78,1.72c-1.72,1.18-4.52,3.62-4.7,5.43 c-0.18,1.81,1.45,7.05,2.08,8.05c0.63,0.99,3.25,3.68,4.07,4.07c1.9,0.9,7.14,0.45,8.68-0.09s5.79-3.98,6.24-5.79 s0.99-4.88-1.09-8.59C92.73,29.37,89.66,28.74,87.31,28.28z" fill="#ED6D30"/>
  <path d="M103.78,104.17l-10.41-0.45c0,0-1.4,2.81-0.98,5.27c0.34,2.04,2.03,4.82,5.06,5.99 c1.72,0.66,6.22,0.23,7.32-0.52c2.22-1.52,2.93-4.28,2.86-5.7C107.6,108.02,103.78,104.17,103.78,104.17z" fill="#DB0D27"/>
  <path d="M101.51,99.75c-2.7-0.41-5.81,1.05-7.15,2.44c-1.34,1.39-1.61,3.13-1.1,5.23 c0.93,3.84,3.39,4.93,4.53,5.52c1.69,0.87,6.33,0.7,7.79-0.41c1.45-1.1,2.55-2.98,2.21-5.87 C107.44,103.76,106.16,100.45,101.51,99.75z" fill="#ED6D30"/>
  <path d="M36,31.03c0.09,2.16,3.87,1.79,5.36,1.64c1.19-0.12,4.17-0.37,4.17-2.31s-2.6-1.93-4.54-1.86 C39.12,28.57,35.92,29.32,36,31.03z" fill="#FCC12B"/>
  <path d="M56.31,18.31c0,1.42,1.56,1.56,2.53,1.64c0.97,0.07,2.23-0.3,2.31-1.41 c0.07-1.12-0.89-1.79-2.31-1.86C57.35,16.59,56.31,17.11,56.31,18.31z" fill="#FCC12B"/>
  <path d="M65.61,21.73c1.43,1.55,3.57-0.52,4.32-1.49c0.74-0.97,0.89-2.46,0.07-3.2 c-0.82-0.74-2.38,0.07-3.42,1.04S64.72,20.76,65.61,21.73z" fill="#FCC12B"/>
  <path d="M81.76,13.84c1.74,1.97,4.61-1.34,5.8-2.46c1.19-1.12,2.16-2.68,1.04-3.94 c-1.12-1.26-3.65,0.52-4.61,1.64C83.02,10.19,80.64,12.58,81.76,13.84z" fill="#FCC12B"/>
  <path d="M26.92,47.25c1.69,0.4,2.24-1.6,2.53-3.13c0.3-1.56,0.3-3.05-0.97-3.27 c-1.44-0.25-2.23,1.19-2.46,2.6C25.83,44.72,25.36,46.88,26.92,47.25z" fill="#FCC12B"/>
</svg>

<svg viewBox="0 0 128 128" xmlns="http://www.w3.org/2000/svg">
  <defs/>
  <path d="M20.24,47.26 C20.24,47.26 14.76,50.71 14.13,54.15 C13.5,57.6 14.76,61.67 16.48,64.33 C18.2,66.99 20.24,69.19 22.75,70.13 C25.26,71.07 27.45,70.91 27.45,70.91 C27.45,70.91 33.25,77.49 43.58,86.42 C53.91,95.35 67.08,106 81.96,114.3 C96.84,122.6 102.17,124.64 106.24,124.64 C110.31,124.64 110.16,118.53 109.69,116.65 C109.22,114.77 83.06,85.64 83.06,85.64 L20.24,47.26 Z" fill="#FF8E00"/>
  <path d="M31.21,62.46 L27.29,58.23 C27.29,58.23 23.22,50.55 19.46,50.55 C15.7,50.55 14.13,54.15 14.13,54.15 C14.13,54.15 13.66,50.23 18.36,42.72 C23.06,35.21 29.01,29.25 34.34,25.49 C39.67,21.73 46.24,17.34 50.63,14.84 C55.02,12.34 64.57,9.2 70.06,7.32 C75.54,5.44 87.45,3.09 92.93,4.19 C98.41,5.29 100.76,9.05 100.76,12.96 C100.76,16.87 99.82,19.54 99.04,20.32 C98.26,21.1 93.09,25.49 93.09,25.49 L31.21,62.46 Z" fill="#F5B03E"/>
  <path d="M42.2,45.95 L32.49,52.22 L28.42,60.21 C28.42,60.21 29.2,62.87 30.46,64.28 C31.71,65.69 42.2,75.74 49.71,82.16 C55.57,87.17 68.06,97.8 68.06,97.8 C68.06,97.8 68.57,103.14 69.16,106.89 C69.63,109.87 69.66,114.84 72.8,114.7 C76.76,114.52 74.48,106.5 77.62,106.58 C83.89,106.74 77.67,123.7 84.41,123.61 C89.78,123.54 86.37,114.27 89.06,112.69 C90.52,111.83 93.42,115.48 98.15,117.55 C103.99,120.1 107.55,122.03 109.43,121.15 C113.4,119.29 105.03,75.92 104.09,68.56 C103.15,61.2 98.47,23.4 98.15,22.15 C97.83,20.9 91.41,20.74 91.41,20.74 L81.54,24.19 L67.44,26.07 L50.84,35.94 L42.2,45.95 Z" fill="#FFCC8A"/>
  <path d="M39.75,44.38 C36.67,46.12 32.7,47.09 29.35,52.61 C26.56,57.21 25.82,61.92 27.81,62.28 C29.8,62.64 31.31,55.7 33.96,53.06 C38.21,48.81 41.65,48.36 44.09,46.1 C46.53,43.84 49.2,37.7 59.37,32.27 C71.22,25.94 78.3,27.61 81.07,26.57 C84.69,25.21 85.67,22.99 90.2,22.05 C94.99,21.06 98.32,22.97 98.32,22.97 C98.32,22.97 99.41,20.44 97.96,19.26 C96.51,18.08 93.84,17.16 89.38,18.07 C84.5,19.06 80.88,22.32 79.89,22.41 C78.9,22.5 68.77,21.96 56.74,28.83 C44.71,35.7 42.46,42.84 39.75,44.38 Z" fill="#CB6C22"/>
  <path d="M53.58,55.32 L37.4,58.85 C37.4,58.85 37.15,61.92 37.31,62.83 C37.85,65.9 41.92,70.79 44.36,71.6 C46.8,72.41 51.77,72.5 53.4,71.78 C55.03,71.06 59.91,67.53 60.54,65.63 C61.17,63.73 61,55.78 59.74,54.51 C58.48,53.25 53.58,55.32 53.58,55.32 Z" fill="#DB0D27"/>
  <path d="M42.19,50.26 C40.46,51.6 37.13,56.14 37.4,59.39 C37.67,62.65 43.28,68.34 44.81,68.88 C46.34,69.42 51.32,69.51 52.59,69.15 C53.86,68.79 58.74,65.17 59.46,63.91 C60.18,62.64 60.82,55.59 59.64,54.33 C58.46,53.07 54.94,49.36 52.14,48.54 C49.33,47.73 43.82,48.99 42.19,50.26 Z" fill="#ED6D30"/>
  <path d="M83.6,65.45 C83.6,65.45 69.28,64.42 69.1,65.32 C68.92,66.22 68.59,69.7 69.5,72.5 C70.14,74.49 71.67,77.93 76.37,79.91 C81.07,81.89 85.59,79.73 86.77,78.82 C88.98,77.12 90.39,75.02 90.75,73.76 C91.11,72.5 83.6,65.45 83.6,65.45 Z" fill="#DB0D27"/>
  <path d="M76.64,57.94 C74.43,58.74 69.14,62.01 69.04,65.63 C68.95,69.25 71.57,73.68 72.93,74.67 C74.29,75.66 78.81,78.29 82.15,78.11 C85.5,77.93 90.11,75.22 90.74,73.77 C91.37,72.32 91.64,68.07 91.37,65.9 C91.1,63.73 86.4,58.85 84.05,58.12 C81.7,57.4 78.63,57.22 76.64,57.94 Z" fill="#ED6D30"/>
  <path d="M76.1,91.76 C76.1,91.76 62.99,88.14 62.81,88.41 C62.63,88.68 60.82,90.94 61.27,92.03 C61.72,93.12 66.33,96.82 68.23,98.45 C70.13,100.08 75.87,103.45 76.55,103.33 C78.18,103.06 79.44,100.44 79.44,100.44 L76.1,91.76 Z" fill="#DB0D27"/>
  <path d="M77.27,86.24 C74.07,83.89 69.4,84.07 66.87,85.25 C64.34,86.43 62.8,87.96 62.53,89.14 C62.26,90.32 64.35,92.59 65.17,93.22 C65.98,93.85 68.44,95.71 68.44,95.71 C68.44,95.71 72.09,98.57 73.44,99.61 C75.32,101.06 77.68,101.88 78.31,101.97 C78.94,102.06 81.88,98.26 81.34,93.19 C81.06,90.6 79.96,88.22 77.27,86.24 Z" fill="#ED6D30"/>
  <path d="M100.06,79.01 L95.18,78.83 C95.18,78.83 93.19,82.54 94.55,86.7 C95.66,90.1 97.99,92.13 101.87,93.21 C105.76,94.3 107.93,93.91 107.93,93.91 L107.99,91.18 L100.06,79.01 Z" fill="#DB0D27"/>
  <path d="M104.76,72.77 C104.76,72.77 98.74,72.06 95.63,77.65 C93.25,81.94 94.91,85.52 96.81,87.6 C98.71,89.68 101.6,91.04 103.77,91.22 C105.94,91.4 108.04,91.23 108.04,91.23 C108.04,91.23 107.2,85.68 106.38,81.04 C105.88,78.26 104.76,72.77 104.76,72.77 Z" fill="#ED6D30"/>
  <path d="M87.22,33.62 C87.22,33.62 75.56,33.98 74.83,35.16 C74.1,36.34 74.11,41.58 74.47,43.66 C74.83,45.74 78,50.8 84.33,50.89 C90.66,50.98 92.89,49.4 95.35,44.62 C97.81,39.84 95.25,34.49 95.25,34.49 L87.22,33.62 Z" fill="#DB0D27"/>
  <path d="M87.31,28.28 C84.78,27.79 81.25,28.82 79.53,30 C77.81,31.18 75.01,33.62 74.83,35.43 C74.65,37.24 76.28,42.48 76.91,43.48 C77.54,44.47 80.16,47.16 80.98,47.55 C82.88,48.45 88.12,48 89.66,47.46 C91.2,46.92 95.45,43.48 95.9,41.67 C96.35,39.86 96.89,36.79 94.81,33.08 C92.73,29.37 89.66,28.74 87.31,28.28 Z" fill="#ED6D30"/>
  <path d="M103.78,104.17 L93.37,103.72 C93.37,103.72 91.97,106.53 92.39,108.99 C92.73,111.03 94.42,113.81 97.45,114.98 C99.17,115.64 103.67,115.21 104.77,114.46 C106.99,112.94 107.7,110.18 107.63,108.76 C107.6,108.02 103.78,104.17 103.78,104.17 Z" fill="#DB0D27"/>
  <path d="M101.51,99.75 C98.81,99.34 95.7,100.8 94.36,102.19 C93.02,103.58 92.75,105.32 93.26,107.42 C94.19,111.26 96.65,112.35 97.79,112.94 C99.48,113.81 104.12,113.64 105.58,112.53 C107.03,111.43 108.13,109.55 107.79,106.66 C107.44,103.76 106.16,100.45 101.51,99.75 Z" fill="#ED6D30"/>
  <path d="M36,31.03 C36.09,33.19 39.87,32.82 41.36,32.67 C42.55,32.55 45.53,32.3 45.53,30.36 C45.53,28.42 42.93,28.43 40.99,28.5 C39.12,28.57 35.92,29.32 36,31.03 Z" fill="#FCC12B"/>
  <path d="M56.31,18.31 C56.31,19.73 57.87,19.87 58.84,19.95 C59.81,20.02 61.07,19.65 61.15,18.54 C61.22,17.42 60.26,16.75 58.84,16.68 C57.35,16.59 56.31,17.11 56.31,18.31 Z" fill="#FCC12B"/>
  <path d="M65.61,21.73 C67.04,23.28 69.18,21.21 69.93,20.24 C70.67,19.27 70.82,17.78 70,17.04 C69.18,16.3 67.62,17.11 66.58,18.08 C65.54,19.05 64.72,20.76 65.61,21.73 Z" fill="#FCC12B"/>
  <path d="M81.76,13.84 C83.5,15.81 86.37,12.5 87.56,11.38 C88.75,10.26 89.72,8.7 88.6,7.44 C87.48,6.18 84.95,7.96 83.99,9.08 C83.02,10.19 80.64,12.58 81.76,13.84 Z" fill="#FCC12B"/>
  <path d="M26.92,47.25 C28.61,47.65 29.16,45.65 29.45,44.12 C29.75,42.56 29.75,41.07 28.48,40.85 C27.04,40.6 26.25,42.04 26.02,43.45 C25.83,44.72 25.36,46.88 26.92,47.25 Z" fill="#FCC12B"/>
</svg>
